img/search-icon.svg

<svg width="23" height="22" viewBox="0 0 23 22" fill="none" xmlns="http://www.w3.org/2000/svg">
<path d="M22.4781 20.4478L16.9395 14.9807C18.4489 13.1586 19.191 10.8335 19.0123 8.48647C18.8336 6.13941 17.7479 3.94992 15.9797 2.37087C14.2115 0.791825 11.8961 -0.0559616 9.51241 0.00286919C7.12871 0.0617 4.85911 1.02265 3.17306 2.68695C1.487 4.35124 0.513495 6.59156 0.453895 8.9445C0.394296 11.2974 1.25316 13.583 2.85285 15.3284C4.45254 17.0738 6.67065 18.1455 9.04839 18.3218C11.4261 18.4982 13.7816 17.7656 15.6275 16.2758L21.1661 21.7429C21.3411 21.9097 21.5755 22.0021 21.8187 22C22.062 21.9979 22.2948 21.9016 22.4668 21.7317C22.6388 21.5619 22.7364 21.3322 22.7385 21.092C22.7407 20.8519 22.6471 20.6205 22.4781 20.4478ZM9.75956 16.5158C8.29141 16.5158 6.85623 16.086 5.63551 15.2809C4.41478 14.4758 3.46335 13.3314 2.90151 11.9925C2.33968 10.6536 2.19267 9.18033 2.47909 7.75897C2.76552 6.33761 3.4725 5.03201 4.51064 4.00727C5.54877 2.98252 6.87144 2.28466 8.31138 2.00194C9.75132 1.71921 11.2439 1.86432 12.6003 2.4189C13.9566 2.97349 15.116 3.91265 15.9316 5.11762C16.7473 6.32259 17.1827 7.73925 17.1827 9.18846C17.1804 11.1311 16.3977 12.9936 15.006 14.3672C13.6144 15.7409 11.7276 16.5136 9.75956 16.5158Z" fill="#EC762A"/>
</svg>

<svg width="23" height="22" fill="none" xmlns="http://www.w3.org/2000/svg"><path d="M22.478 20.448L16.94 14.98a9.094 9.094 0 002.073-6.495 9.13 9.13 0 00-3.032-6.115A9.365 9.365 0 009.512.003a9.353 9.353 0 00-6.339 2.684 9.117 9.117 0 00-2.72 6.258 9.105 9.105 0 002.4 6.383 9.34 9.34 0 006.195 2.994 9.375 9.375 0 006.58-2.046l5.538 5.467a.935.935 0 001.3-.011.91.91 0 00.012-1.284zM9.76 16.516a7.493 7.493 0 01-4.124-1.235 7.348 7.348 0 01-2.734-3.289 7.24 7.24 0 01-.423-4.233 7.299 7.299 0 012.032-3.752 7.453 7.453 0 013.8-2.005 7.513 7.513 0 014.29.417 7.403 7.403 0 013.33 2.699 7.26 7.26 0 011.252 4.07 7.288 7.288 0 01-2.177 5.18 7.48 7.48 0 01-5.246 2.148z" fill="#EC762A"/></svg>
